Themes/OneUI/assets/svg/sec_ic_settings_accessibility.svg

<?xml version="1.0" encoding="UTF-8" standalone="no"?>
<svg
   width="28.000021"
   height="28.000021"
   viewBox="0 0 28.000021 28.000021"
   fill="none"
   version="1.1"
   id="svg1930"
   sodipodi:docname="sec_ic_settings_accessibility.svg"
   xmlns:inkscape="http://www.inkscape.org/namespaces/inkscape"
   xmlns:sodipodi="http://sodipodi.sourceforge.net/DTD/sodipodi-0.dtd"
   xmlns="http://www.w3.org/2000/svg"
   xmlns:svg="http://www.w3.org/2000/svg">
  <sodipodi:namedview
     id="namedview1932"
     pagecolor="#ffffff"
     bordercolor="#666666"
     borderopacity="1.0"
     inkscape:showpageshadow="2"
     inkscape:pageopacity="0.0"
     inkscape:pagecheckerboard="0"
     inkscape:deskcolor="#d1d1d1" />
  <g
     clip-path="url(#clip0_1_1447)"
     id="g1923">
    <path
       d="M 24.856,3.14401 C 23.13,1.52161 20.7739,0.601214 18.1738,0.256914 15.6907,-0.072186 14,0.00881404 14,0.00881404 c 0,0 -1.691,-0.08100004 -4.17421,0.24809996 -2.6,0.3443 -4.956,1.264696 -6.6815,2.887096 -1.6228,1.7258 -2.543099,4.0819 -2.887599,6.6819 -0.3291004,2.48299 -0.2478004,4.17399 -0.2478004,4.17399 0,0 -0.0813,1.6908 0.2478004,4.174 0.3445,2.5998 1.264799,4.9561 2.887399,6.6819 1.7257,1.6226 4.0817,2.5428 6.6817,2.8875 C 12.309,28.0722 14,27.9912 14,27.9912 c 0,0 1.6907,0.081 4.1738,-0.2479 2.6001,-0.3447 4.9562,-1.2649 6.6818,-2.8875 1.623,-1.7258 2.5432,-4.0821 2.8877,-6.6819 0.3289,-2.4832 0.2479,-4.174 0.2479,-4.174 0,0 0.081,-1.691 -0.2479,-4.17399 -0.3445,-2.6 -1.2647,-4.9561 -2.8873,-6.6819 z"
       fill="#3ca766"
       id="path1919" />
    <path
       d="m 20.3456,10.4264 c 0.5894,0 1.067,0.4794 1.067,1.0716 0,0.593 -0.4776,1.0725 -1.067,1.0725 l -3.7051,0.2731 c -0.1027,0.0074 -0.1916,0.0798 -0.2164,0.1797 -0.1393,0.5417 -0.2099,0.9011 -0.209,1.4621 0,0.2365 0.0321,0.473 0.0944,0.7012 l 1.7885,6.314 c 0.153,0.572 -0.1852,1.1597 -0.7535,1.3146 -0.5702,0.1531 -1.155,-0.1862 -1.3072,-0.7582 L 14.06,17.0759 h -0.3483 l -1.9772,4.9811 c -0.1522,0.572 -0.737,0.9113 -1.3072,0.7582 C 9.859,22.6603 9.5207,22.0726 9.6729,21.5006 l 1.7893,-6.314 c 0.0623,-0.2282 0.0944,-0.4647 0.0944,-0.7012 0,-0.561 -0.0696,-0.9204 -0.2081,-1.4621 C 11.322,12.9234 11.234,12.851 11.1304,12.8436 l -3.476,-0.2731 c -0.5885,0 -1.067,-0.4795 -1.067,-1.0725 0,-0.5922 0.4785,-1.0716 1.067,-1.0716 z M 13.886,5.14795 c 1.012,0 1.8333,0.8214 1.8333,1.8334 0,1.012 -0.8213,1.8333 -1.8333,1.8333 -1.012,0 -1.8334,-0.8213 -1.8334,-1.8333 0,-1.012 0.8214,-1.8334 1.8334,-1.8334 z"
       fill="#ffffff"
       id="path1921" />
  </g>
  <defs
     id="defs1928">
    <clipPath
       id="clip0_1_1447">
      <rect
         width="28"
         height="28"
         fill="#ffffff"
         id="rect1925"
         x="0"
         y="0" />
    </clipPath>
  </defs>
</svg>

<svg width="28" height="28" viewBox="0 0 28 28" fill="none" xmlns="http://www.w3.org/2000/svg">
<g clip-path="url(#clip0_1_1447)">
<path d="M24.856 3.14401C23.13 1.52161 20.7739 0.601214 18.1738 0.256914C15.6907 -0.072186 14 0.00881404 14 0.00881404C14 0.00881404 12.309 -0.072186 9.82579 0.256914C7.22579 0.601214 4.86979 1.52161 3.14429 3.14401C1.52149 4.86981 0.601191 7.22591 0.256691 9.82591C-0.0724094 12.3089 0.0088906 13.9999 0.0088906 13.9999C0.0088906 13.9999 -0.0724094 15.6907 0.256691 18.1739C0.601191 20.7737 1.52149 23.13 3.14409 24.8558C4.86979 26.4784 7.22579 27.3986 9.82579 27.7433C12.309 28.0722 14 27.9912 14 27.9912C14 27.9912 15.6907 28.0722 18.1738 27.7433C20.7739 27.3986 23.13 26.4784 24.8556 24.8558C26.4786 23.13 27.3988 20.7737 27.7433 18.1739C28.0722 15.6907 27.9912 13.9999 27.9912 13.9999C27.9912 13.9999 28.0722 12.3089 27.7433 9.82591C27.3988 7.22591 26.4786 4.86981 24.856 3.14401Z" fill="#3CA766"/>
<path d="M20.3456 10.4264C20.935 10.4264 21.4126 10.9058 21.4126 11.498C21.4126 12.091 20.935 12.5705 20.3456 12.5705L16.6405 12.8436C16.5378 12.851 16.4489 12.9234 16.4241 13.0233C16.2848 13.565 16.2142 13.9244 16.2151 14.4854C16.2151 14.7219 16.2472 14.9584 16.3095 15.1866L18.098 21.5006C18.251 22.0726 17.9128 22.6603 17.3445 22.8152C16.7743 22.9683 16.1895 22.629 16.0373 22.057L14.06 17.0759H13.7117L11.7345 22.057C11.5823 22.629 10.9975 22.9683 10.4273 22.8152C9.859 22.6603 9.5207 22.0726 9.6729 21.5006L11.4622 15.1866C11.5245 14.9584 11.5566 14.7219 11.5566 14.4854C11.5566 13.9244 11.487 13.565 11.3485 13.0233C11.322 12.9234 11.234 12.851 11.1304 12.8436L7.6544 12.5705C7.0659 12.5705 6.5874 12.091 6.5874 11.498C6.5874 10.9058 7.0659 10.4264 7.6544 10.4264H20.3456ZM13.886 5.14795C14.898 5.14795 15.7193 5.96935 15.7193 6.98135C15.7193 7.99335 14.898 8.81465 13.886 8.81465C12.874 8.81465 12.0526 7.99335 12.0526 6.98135C12.0526 5.96935 12.874 5.14795 13.886 5.14795Z" fill="white"/>
</g>
<defs>
<clipPath id="clip0_1_1447">
<rect width="28" height="28" fill="white"/>
</clipPath>
</defs>
</svg>
